static/logos/chanel-wordmark-white.svg

<svg width="98" height="64" viewBox="0 0 98 64" fill="none" xmlns="http://www.w3.org/2000/svg">
<g clip-path="url(#clip0_1204_196)">
<path d="M7.41434 63.9951C7.37326 63.9903 7.23399 63.9759 7.10486 63.9629C5.92612 63.8446 4.66784 63.3625 3.67871 62.6504C2.19572 61.5828 1.15068 60.0282 0.714783 58.2412C0.483142 57.2917 0.437104 56.2279 0.585249 55.2492C0.982473 52.6253 2.7164 50.3778 5.12171 49.3689C5.72199 49.1172 6.31773 48.958 7.01949 48.8618C7.4085 48.8085 8.35587 48.8082 8.74831 48.8613C9.58056 48.9739 10.286 49.1838 11.0107 49.5345C11.8082 49.9203 12.3601 50.3176 13.0281 50.9868C13.6121 51.5718 13.9728 52.0587 14.3909 52.8267L14.4798 52.9901L14.1646 53.2233C13.7304 53.5445 12.7118 54.2712 12.3801 54.4965L12.1061 54.6826L11.9934 54.4376C11.854 54.1348 11.7548 53.9552 11.5941 53.7153C10.9521 52.7565 9.92829 52.0717 8.81234 51.8545C8.22185 51.7396 7.49489 51.7524 6.91277 51.8879C6.30149 52.0303 5.63769 52.3495 5.13059 52.7451C4.92618 52.9045 4.54998 53.2776 4.38446 53.485C3.49134 54.6042 3.16237 56.03 3.46867 57.4541C3.57473 57.9471 3.84923 58.5913 4.13559 59.0192C4.8935 60.1515 6.05523 60.877 7.3711 61.0396C7.60372 61.0684 8.16408 61.0684 8.3967 61.0396C9.56204 60.8956 10.6388 60.2901 11.3746 59.3652C11.5913 59.0928 11.7423 58.857 11.9145 58.5221C11.9899 58.3754 12.058 58.2553 12.0657 58.2553C12.0734 58.2553 12.6099 58.6339 13.2579 59.0967L14.4362 59.9381L14.3168 60.1639C14.069 60.6325 13.6428 61.2216 13.2458 61.644C12.5694 62.3637 11.9106 62.8528 11.0534 63.2716C10.3131 63.6332 9.52857 63.8639 8.69493 63.9651C8.50803 63.9878 7.54723 64.0103 7.41434 63.9951ZM17.4885 56.3344V48.9603H20.3485V54.2534H27.8187V48.9603H30.6788V63.7086H27.8187V57.2202H20.3485V63.7086H17.4885V56.3344ZM33.5683 62.4013C33.8871 61.6823 35.3579 58.364 36.8368 55.0272L39.5256 48.9603L41.5319 48.9605L43.5382 48.9607L46.7886 56.244C48.5763 60.2498 50.0573 63.568 50.0798 63.6179L50.1206 63.7086H46.696L46.0349 62.2467L45.3737 60.7848L41.5468 60.79L37.7199 60.7952L37.0661 62.2519L36.4124 63.7086H32.9886L33.5683 62.4013ZM44.1641 57.8094C44.152 57.7574 41.5538 51.9495 41.5426 51.9497C41.5347 51.9498 39.0671 57.7088 39.0276 57.8192C39.0233 57.8315 40.01 57.8392 41.5958 57.8392C43.7863 57.8392 44.17 57.8347 44.1641 57.8094ZM52.4278 56.3344V48.9603L54.4395 48.9607L56.4511 48.9612L59.5993 53.3828L62.7474 57.8044L62.7528 53.3823L62.7582 48.9603H65.6395V63.709L64.4834 63.7035L63.3272 63.698L59.3342 58.1548C57.1381 55.106 55.334 52.6113 55.3252 52.6108C55.3164 52.6104 55.3092 55.1072 55.3092 58.1593V63.7086H52.4278V56.3344ZM70.8473 56.3344V48.9603H81.1562V51.927H73.7287V54.8724H80.6013V57.8392H73.7287V60.7846H82.2234V63.7086H70.8473V56.3344ZM86.2573 56.3344V48.9603H89.1387V60.7846H97.1639V63.7086H86.2573V56.3344ZM36.8798 45.2094C33.8013 45.067 30.3732 44.1322 27.6095 42.6816C25.4878 41.568 23.8062 40.3219 22.0446 38.5576C20.6649 37.1757 19.647 35.9029 18.7853 34.4819L18.4081 33.8599L18.9432 33.576C19.9859 33.023 24.7394 30.589 24.7767 30.589C24.7975 30.589 24.9939 30.8563 25.213 31.183C27.6902 34.8751 31.5656 37.2769 36.1006 37.9306C36.8934 38.0449 39.2774 38.0267 40.1408 37.8998C41.1014 37.7585 42.2537 37.4965 42.9855 37.253C43.0332 37.2372 42.9422 37.0894 42.7328 36.8426C41.1118 34.9318 39.6341 32.3091 38.8027 29.8675C37.2989 25.451 37.1918 20.7102 38.4954 16.2558C39.3048 13.4897 40.6979 10.8049 42.4621 8.61079C42.7249 8.28392 42.94 7.9955 42.94 7.96991C42.94 7.88285 41.5628 7.51627 40.6602 7.36307C39.2657 7.12639 37.0826 7.09705 35.8223 7.29804C33.7016 7.63625 31.5492 8.43046 29.8673 9.49533C27.993 10.682 26.4299 12.207 25.1827 14.0661L24.6319 14.887L23.9309 14.5189C23.5454 14.3165 22.1131 13.5743 20.7481 12.8695C19.3831 12.1648 18.2621 11.5844 18.2569 11.5798C18.2352 11.5607 19.0897 10.2015 19.4415 9.69577C20.5095 8.16017 22.4059 6.12647 23.8071 5.01426C27.4708 2.10599 31.5439 0.468088 36.1295 0.0590392C36.9801 -0.0168583 39.0893 -0.01752 39.9099 0.0578226C42.8212 0.325086 45.3167 1.03098 47.8949 2.31635L49.127 2.93066L49.5398 2.69578C50.2063 2.31648 51.3906 1.76921 52.29 1.42481C54.8136 0.458569 57.3551 -0.00136295 60.1632 3.03355e-06C62.124 0.000963492 63.7599 0.193631 65.5358 0.632774C69.5478 1.62486 72.9692 3.52755 75.917 6.40592C77.5152 7.96639 78.7677 9.55966 79.7789 11.3187L79.9321 11.5853L77.4379 12.872C76.0661 13.5797 74.6311 14.3227 74.2489 14.5231L73.5542 14.8874L73.029 14.0952C70.4378 10.1864 66.1993 7.64167 61.56 7.2094C60.1865 7.08142 58.1471 7.19926 56.9074 7.47824C56.2694 7.62182 55.2336 7.91775 55.2339 7.95638C55.2341 7.97657 55.4035 8.20087 55.6105 8.45483C58.2691 11.717 59.9291 15.6934 60.4655 20.0847C60.5935 21.1328 60.6106 23.8087 60.4958 24.8463C60.0114 29.228 58.3546 33.2717 55.71 36.527C55.1104 37.2649 55.136 37.2139 55.3283 37.2882C55.4191 37.3233 55.844 37.4408 56.2726 37.5494C58.4506 38.1012 60.7951 38.1792 62.9965 37.773C67.0004 37.0341 70.6064 34.6662 72.9257 31.2528C73.1414 30.9353 73.3362 30.6543 73.3586 30.6283C73.3809 30.6022 73.9156 30.8398 74.5466 31.1561C75.7967 31.7828 79.7125 33.8091 79.7545 33.8511C79.8245 33.9211 78.5765 35.7735 77.8112 36.7358C77.0866 37.6468 75.1874 39.5438 74.28 40.2629C71.0008 42.8616 67.3209 44.4505 63.2675 45.0178C58.6135 45.6691 53.6847 44.7968 49.6744 42.612L49.1076 42.3032L48.4047 42.6752C44.9216 44.518 40.9264 45.3965 36.8798 45.2094ZM49.8823 32.4071C51.8233 30.0045 53.0343 27.09 53.3328 24.1034C53.433 23.101 53.3734 21.0591 53.2174 20.1463C52.7881 17.6347 51.8696 15.482 50.3878 13.5148C50.1087 13.1444 49.7024 12.6491 49.4848 12.4144L49.0892 11.9874L48.7221 12.3855C48.2382 12.9102 47.4318 13.9806 47.0253 14.6378C44.9616 17.9749 44.2878 22.0746 45.1618 25.9766C45.7117 28.432 46.9762 30.9056 48.6802 32.8594L49.0726 33.3093L49.2443 33.1468C49.3387 33.0574 49.6258 32.7245 49.8823 32.4071Z" fill="white"/>
</g>
<defs>
<clipPath id="clip0_1204_196">
<rect width="96.664" height="64" fill="white" transform="translate(0.5)"/>
</clipPath>
</defs>
</svg>

<svg xmlns="http://www.w3.org/2000/svg" width="98" height="64" fill="none"><g clip-path="url(#a)"><path fill="#fff" d="M7.414 63.995c-.04-.005-.18-.02-.31-.032-1.178-.118-2.436-.6-3.425-1.313a7.65 7.65 0 0 1-2.964-4.409 7.9 7.9 0 0 1-.13-2.992c.397-2.624 2.131-4.871 4.537-5.88a7.3 7.3 0 0 1 1.897-.507c.39-.053 1.337-.054 1.73 0a7.2 7.2 0 0 1 2.262.672c.797.386 1.35.784 2.017 1.453.584.585.945 1.072 1.363 1.84l.089.163-.315.233a86 86 0 0 1-1.785 1.273l-.274.187-.113-.245a4.6 4.6 0 0 0-.399-.723 4.4 4.4 0 0 0-2.782-1.86 4.9 4.9 0 0 0-1.9.033 4.8 4.8 0 0 0-1.781.857 6 6 0 0 0-.747.74c-.893 1.12-1.222 2.545-.915 3.97.106.492.38 1.136.667 1.564.758 1.133 1.92 1.858 3.235 2.02.233.03.793.03 1.026 0a4.53 4.53 0 0 0 2.978-1.674c.216-.272.367-.508.54-.843.075-.147.143-.267.15-.267s.545.379 1.193.842l1.178.841-.12.226a7.5 7.5 0 0 1-1.07 1.48 7.2 7.2 0 0 1-2.193 1.628 7.4 7.4 0 0 1-2.358.693c-.187.023-1.148.045-1.28.03m10.075-7.66V48.96h2.86v5.293h7.47V48.96h2.86V63.71h-2.86V57.22h-7.47v6.489h-2.86zm16.08 6.066 3.268-7.374 2.689-6.067h4.012l3.25 7.284 3.292 7.374.04.09h-3.424l-.661-1.461-.661-1.462-3.827.005-3.827.005-.654 1.457-.654 1.457H32.99zm10.595-4.592c-.012-.052-2.61-5.86-2.621-5.86-.008 0-2.476 5.76-2.515 5.87-.005.012.982.02 2.568.02 2.19 0 2.574-.004 2.568-.03m8.264-1.475V48.96h2.012l2.011.001 3.148 4.422 3.148 4.421.006-4.422.005-4.422h2.881V63.71l-1.156-.006-1.156-.005-3.993-5.543c-2.196-3.049-4-5.544-4.009-5.544s-.016 2.496-.016 5.548v5.55h-2.881zm18.42 0V48.96h10.308v2.967H73.73v2.945H80.6v2.967H73.73v2.946h8.494v2.924H70.847zm15.41 0V48.96h2.88v11.825h8.026v2.924H86.257zM36.88 45.21c-3.079-.142-6.507-1.077-9.27-2.527-2.122-1.114-3.804-2.36-5.565-4.124-1.38-1.382-2.398-2.655-3.26-4.076l-.377-.622.535-.284c1.043-.553 5.796-2.987 5.834-2.987.02 0 .217.267.436.594 2.477 3.692 6.353 6.094 10.888 6.748.792.114 3.176.096 4.04-.031.96-.142 2.113-.404 2.845-.647.047-.016-.044-.164-.253-.41-1.621-1.911-3.099-4.534-3.93-6.976a22.54 22.54 0 0 1-.308-13.611c.81-2.766 2.203-5.451 3.967-7.645.263-.327.478-.616.478-.641 0-.087-1.377-.454-2.28-.607-1.394-.237-3.577-.266-4.838-.065-2.12.338-4.273 1.132-5.955 2.197a15.7 15.7 0 0 0-4.684 4.571l-.551.821-.701-.368a879 879 0 0 0-3.183-1.65 635 635 0 0 1-2.491-1.29c-.022-.018.833-1.378 1.185-1.883 1.067-1.536 2.964-3.57 4.365-4.682C27.471 2.106 31.544.468 36.13.06c.85-.076 2.96-.077 3.78-.001 2.911.267 5.407.973 7.985 2.258l1.232.615.413-.235c.666-.38 1.85-.927 2.75-1.271C54.814.459 57.355-.001 60.163 0c1.961.001 3.597.194 5.373.633 4.012.992 7.433 2.895 10.381 5.773 1.598 1.56 2.85 3.154 3.862 4.913l.153.266-2.494 1.287c-1.372.708-2.807 1.45-3.19 1.651l-.694.364-.525-.792c-2.591-3.909-6.83-6.453-11.469-6.886-1.373-.128-3.413-.01-4.653.27-.638.143-1.673.439-1.673.477 0 .02.17.245.377.499 2.658 3.262 4.318 7.238 4.855 11.63.127 1.048.145 3.724.03 4.761-.485 4.382-2.141 8.426-4.786 11.681-.6.738-.574.687-.382.761.091.035.516.153.945.261 2.178.552 4.522.63 6.723.224 4.004-.739 7.61-3.107 9.93-6.52.215-.318.41-.599.433-.625.022-.026.557.212 1.188.528 1.25.627 5.166 2.653 5.207 2.695.07.07-1.178 1.922-1.943 2.885-.724.91-2.624 2.808-3.531 3.527-3.28 2.599-6.96 4.188-11.013 4.755-4.654.651-9.582-.221-13.593-2.406l-.566-.309-.703.372c-3.483 1.843-7.479 2.722-11.525 2.534m13.002-12.802c1.941-2.402 3.152-5.317 3.45-8.304.101-1.002.041-3.044-.115-3.957-.429-2.511-1.347-4.664-2.83-6.631-.278-.37-.685-.866-.902-1.1l-.396-.428-.367.399c-.484.524-1.29 1.595-1.697 2.252-2.063 3.337-2.737 7.437-1.863 11.339.55 2.455 1.814 4.929 3.518 6.882l.393.45.171-.162c.095-.09.382-.422.638-.74"/></g><defs><clipPath id="a"><path fill="#fff" d="M.5 0h96.664v64H.5z"/></clipPath></defs></svg>
